dist/img/note.svg

<svg width="84" height="94" viewBox="0 0 84 94" fill="none" xmlns="http://www.w3.org/2000/svg">
<path fill-rule="evenodd" clip-rule="evenodd" d="M64.8304 33.2559V88.6866C64.8304 90.1202 63.6683 91.2823 62.2348 91.2823H4.154C2.72043 91.2823 1.55835 90.1202 1.55835 88.6866V19.5739C1.55835 18.1404 2.72043 16.9783 4.154 16.9783H62.2348C63.6683 16.9783 64.8304 18.1404 64.8304 19.5739V33.2559Z" fill="#EA4435"/>
<path fill-rule="evenodd" clip-rule="evenodd" d="M62.2347 92.121H4.15394C2.26031 92.121 0.71936 90.5801 0.71936 88.6864V19.5737C0.71936 17.6798 2.26031 16.1392 4.15394 16.1392H62.2347C64.1283 16.1392 65.6693 17.6798 65.6693 19.5737V25.5764C65.6693 26.0399 65.2938 26.4154 64.8304 26.4154C64.3669 26.4154 63.9914 26.0399 63.9914 25.5764V19.5737C63.9914 18.6049 63.2032 17.817 62.2347 17.817H4.15394C3.18548 17.817 2.39722 18.6049 2.39722 19.5737V88.6864C2.39722 89.6549 3.18548 90.4432 4.15394 90.4432H62.2347C63.2032 90.4432 63.9914 89.6549 63.9914 88.6864V33.2557C63.9914 32.7922 64.3669 32.4167 64.8304 32.4167C65.2938 32.4167 65.6693 32.7922 65.6693 33.2557V88.6864C65.6693 90.5801 64.1283 92.121 62.2347 92.121Z" fill="black"/>
<path fill-rule="evenodd" clip-rule="evenodd" d="M47.6658 80.7368H9.15088V22.0073H57.2377V71.1649L47.6658 80.7368Z" fill="white"/>
<path fill-rule="evenodd" clip-rule="evenodd" d="M47.6659 81.5758H9.15094C8.68752 81.5758 8.31201 81.2002 8.31201 80.7368V22.0074C8.31201 21.544 8.68752 21.1685 9.15094 21.1685H57.2377C57.7011 21.1685 58.0766 21.544 58.0766 22.0074V71.165C58.0766 71.6284 57.7011 72.0039 57.2377 72.0039C56.7743 72.0039 56.3988 71.6284 56.3988 71.165V22.8463H9.98987V79.8979H47.6659C48.1293 79.8979 48.5048 80.2734 48.5048 80.7368C48.5048 81.2002 48.1293 81.5758 47.6659 81.5758Z" fill="black"/>
<path fill-rule="evenodd" clip-rule="evenodd" d="M45.9705 25.5766H20.418C18.7831 25.5766 17.4573 24.2511 17.4573 22.6158V15.5587C17.4573 13.9235 18.7831 12.5977 20.418 12.5977H45.9705C47.6054 12.5977 48.9312 13.9235 48.9312 15.5587V22.6158C48.9312 24.2511 47.6054 25.5766 45.9705 25.5766Z" fill="black"/>
<path fill-rule="evenodd" clip-rule="evenodd" d="M20.4181 13.4091C19.2332 13.4091 18.2687 14.3732 18.2687 15.5588V22.6159C18.2687 23.8011 19.2332 24.7655 20.4181 24.7655H45.9705C47.1558 24.7655 48.1202 23.8011 48.1202 22.6159V15.5588C48.1202 14.3732 47.1558 13.4091 45.9705 13.4091H20.4181ZM45.9705 26.388H20.4181C18.3382 26.388 16.6462 24.6957 16.6462 22.6159V15.5588C16.6462 13.4786 18.3382 11.7866 20.4181 11.7866H45.9705C48.0504 11.7866 49.7424 13.4786 49.7424 15.5588V22.6159C49.7424 24.6957 48.0504 26.388 45.9705 26.388Z" fill="black"/>
<path fill-rule="evenodd" clip-rule="evenodd" d="M42.1173 13.4364C41.6538 13.4364 41.2783 13.0609 41.2783 12.5975V8.33776C41.2783 7.57097 40.6545 6.94715 39.8881 6.94715H26.5011C25.7343 6.94715 25.1105 7.57097 25.1105 8.33776V12.5975C25.1105 13.0609 24.735 13.4364 24.2715 13.4364C23.8081 13.4364 23.4326 13.0609 23.4326 12.5975V8.33776C23.4326 6.6458 24.8091 5.26929 26.5011 5.26929H39.8881C41.58 5.26929 42.9562 6.6458 42.9562 8.33776V12.5975C42.9562 13.0609 42.5807 13.4364 42.1173 13.4364Z" fill="black"/>
<path fill-rule="evenodd" clip-rule="evenodd" d="M26.413 38.5555C26.413 41.2435 24.2338 43.4227 21.5458 43.4227C18.8576 43.4227 16.6787 41.2435 16.6787 38.5555C16.6787 35.8676 18.8576 33.6887 21.5458 33.6887C24.2338 33.6887 26.413 35.8676 26.413 38.5555Z" fill="#EA4435"/>
<path fill-rule="evenodd" clip-rule="evenodd" d="M26.413 52.1833C26.413 54.8712 24.2338 57.0504 21.5458 57.0504C18.8576 57.0504 16.6787 54.8712 16.6787 52.1833C16.6787 49.4954 18.8576 47.3162 21.5458 47.3162C24.2338 47.3162 26.413 49.4954 26.413 52.1833Z" fill="#EA4435"/>
<path fill-rule="evenodd" clip-rule="evenodd" d="M26.413 65.8112C26.413 68.4992 24.2338 70.6784 21.5458 70.6784C18.8576 70.6784 16.6787 68.4992 16.6787 65.8112C16.6787 63.123 18.8576 60.9441 21.5458 60.9441C24.2338 60.9441 26.413 63.123 26.413 65.8112Z" fill="#EA4435"/>
<path fill-rule="evenodd" clip-rule="evenodd" d="M21.5459 41.017C21.3234 41.017 21.11 40.9287 20.9526 40.771L18.357 38.1754C18.0291 37.8478 18.0291 37.3166 18.357 36.9891C18.6842 36.6613 19.2157 36.6613 19.5432 36.9891L21.503 38.9488L24.8322 35.12C25.1365 34.7703 25.6664 34.7341 26.0157 35.0374C26.3651 35.3414 26.4023 35.8713 26.0983 36.221L22.1788 40.7287C22.0261 40.9039 21.8073 41.0082 21.5751 41.0163C21.5654 41.0166 21.5553 41.017 21.5459 41.017Z" fill="#F5F8FA"/>
<path fill-rule="evenodd" clip-rule="evenodd" d="M25.4647 36.5094C25.2694 36.5094 25.0734 36.4416 24.9147 36.3034C24.565 35.9993 24.5281 35.4695 24.8321 35.1198L27.4019 32.1644C27.7063 31.8151 28.2362 31.7782 28.5858 32.0819C28.9352 32.3859 28.9721 32.9158 28.6684 33.2654L26.0982 36.2208C25.9321 36.4118 25.6992 36.5094 25.4647 36.5094Z" fill="black"/>
<path fill-rule="evenodd" clip-rule="evenodd" d="M21.5459 54.9694C21.3234 54.9694 21.11 54.8811 20.9526 54.7234L18.357 52.1278C18.0291 51.8002 18.0291 51.269 18.357 50.9415C18.6842 50.6137 19.2157 50.6137 19.5432 50.9415L21.503 52.9009L24.8322 49.0724C25.1365 48.7231 25.6664 48.6861 26.0157 48.9898C26.3651 49.2939 26.4023 49.8241 26.0983 50.1737L22.1788 54.6808C22.0261 54.8563 21.8073 54.9607 21.5751 54.9687C21.5654 54.9691 21.5553 54.9694 21.5459 54.9694Z" fill="#F5F8FA"/>
<path fill-rule="evenodd" clip-rule="evenodd" d="M25.4647 50.4619C25.2694 50.4619 25.0734 50.3941 24.9147 50.2562C24.565 49.9518 24.5281 49.422 24.8321 49.0723L27.4019 46.1169C27.7063 45.7673 28.2362 45.7307 28.5858 46.0344C28.9352 46.3384 28.9721 46.8683 28.6684 47.2179L26.0982 50.1737C25.9321 50.3643 25.6992 50.4619 25.4647 50.4619Z" fill="black"/>
<path fill-rule="evenodd" clip-rule="evenodd" d="M21.5459 68.9214C21.3234 68.9214 21.11 68.8332 20.9526 68.6758L18.357 66.0798C18.0291 65.7523 18.0291 65.2211 18.357 64.8936C18.6842 64.5661 19.2157 64.5661 19.5432 64.8936L21.503 66.8533L24.8322 63.0248C25.1365 62.6754 25.6664 62.6385 26.0157 62.9422C26.3651 63.2463 26.4023 63.7761 26.0983 64.1258L22.1788 68.6332C22.0261 68.8087 21.8073 68.9127 21.5751 68.9211C21.5654 68.9214 21.5553 68.9214 21.5459 68.9214Z" fill="#F5F8FA"/>
<path fill-rule="evenodd" clip-rule="evenodd" d="M25.4647 64.4142C25.2694 64.4142 25.0734 64.3464 24.9147 64.2081C24.565 63.9041 24.5281 63.3742 24.8321 63.0245L27.4019 60.0688C27.7063 59.7195 28.2362 59.6829 28.5858 59.9863C28.9352 60.2903 28.9721 60.8205 28.6684 61.1702L26.0982 64.1256C25.9321 64.3165 25.6992 64.4142 25.4647 64.4142Z" fill="black"/>
<path fill-rule="evenodd" clip-rule="evenodd" d="M50.9106 36.6364H33.0645C32.6011 36.6364 32.2256 36.2609 32.2256 35.7974C32.2256 35.334 32.6011 34.9585 33.0645 34.9585H50.9106C51.374 34.9585 51.7495 35.334 51.7495 35.7974C51.7495 36.2609 51.374 36.6364 50.9106 36.6364Z" fill="black"/>
<path fill-rule="evenodd" clip-rule="evenodd" d="M50.9105 41.1788H47.0169C46.5535 41.1788 46.178 40.8033 46.178 40.3399C46.178 39.8765 46.5535 39.501 47.0169 39.501H50.9105C51.374 39.501 51.7495 39.8765 51.7495 40.3399C51.7495 40.8033 51.374 41.1788 50.9105 41.1788Z" fill="black"/>
<path fill-rule="evenodd" clip-rule="evenodd" d="M40.0407 41.1788H33.0645C32.6011 41.1788 32.2256 40.8033 32.2256 40.3399C32.2256 39.8765 32.6011 39.501 33.0645 39.501H40.0407C40.5041 39.501 40.8796 39.8765 40.8796 40.3399C40.8796 40.8033 40.5041 41.1788 40.0407 41.1788Z" fill="black"/>
<path fill-rule="evenodd" clip-rule="evenodd" d="M50.9106 50.5887H33.0645C32.6011 50.5887 32.2256 50.2132 32.2256 49.7498C32.2256 49.2864 32.6011 48.9109 33.0645 48.9109H50.9106C51.374 48.9109 51.7495 49.2864 51.7495 49.7498C51.7495 50.2132 51.374 50.5887 50.9106 50.5887Z" fill="black"/>
<path fill-rule="evenodd" clip-rule="evenodd" d="M47.0169 55.1312H33.0645C32.6011 55.1312 32.2256 54.7557 32.2256 54.2923C32.2256 53.8289 32.6011 53.4534 33.0645 53.4534H47.0169C47.4803 53.4534 47.8559 53.8289 47.8559 54.2923C47.8559 54.7557 47.4803 55.1312 47.0169 55.1312Z" fill="black"/>
<path fill-rule="evenodd" clip-rule="evenodd" d="M50.9106 64.5411H33.0645C32.6011 64.5411 32.2256 64.1656 32.2256 63.7022C32.2256 63.2388 32.6011 62.8633 33.0645 62.8633H50.9106C51.374 62.8633 51.7495 63.2388 51.7495 63.7022C51.7495 64.1656 51.374 64.5411 50.9106 64.5411Z" fill="black"/>
<path fill-rule="evenodd" clip-rule="evenodd" d="M42.2752 69.0839H36.6339C36.1704 69.0839 35.7949 68.708 35.7949 68.2449C35.7949 67.7815 36.1704 67.406 36.6339 67.406H42.2752C42.7382 67.406 43.1141 67.7815 43.1141 68.2449C43.1141 68.708 42.7382 69.0839 42.2752 69.0839Z" fill="#242B42"/>
<path fill-rule="evenodd" clip-rule="evenodd" d="M40.0406 69.0839H37.2825C36.8191 69.0839 36.4436 68.708 36.4436 68.2449C36.4436 67.7815 36.8191 67.406 37.2825 67.406H40.0406C40.504 67.406 40.8795 67.7815 40.8795 68.2449C40.8795 68.708 40.504 69.0839 40.0406 69.0839Z" fill="black"/>
<path fill-rule="evenodd" clip-rule="evenodd" d="M47.6658 80.7369V71.165H57.2376L47.6658 80.7369Z" fill="white"/>
<path fill-rule="evenodd" clip-rule="evenodd" d="M48.5048 72.0038V78.7112L55.2122 72.0038H48.5048ZM47.6658 81.5756C47.5574 81.5756 47.4487 81.5548 47.3447 81.5119C47.0313 81.382 46.8269 81.076 46.8269 80.7367V71.1649C46.8269 70.7014 47.2024 70.3259 47.6658 70.3259H57.2377C57.5769 70.3259 57.883 70.5303 58.0125 70.8437C58.1427 71.1571 58.0709 71.5179 57.831 71.7578L48.2591 81.33C48.0987 81.4904 47.884 81.5756 47.6658 81.5756Z" fill="black"/>
<path fill-rule="evenodd" clip-rule="evenodd" d="M75.4449 6.33306C75.2389 6.33306 75.0328 6.25789 74.8708 6.10588C74.5332 5.78876 74.5164 5.25789 74.8335 4.91997L77.957 1.59378C78.2741 1.25586 78.8053 1.23941 79.1429 1.55653C79.4805 1.87364 79.4973 2.40452 79.1802 2.74244L76.0567 6.06863C75.8916 6.24447 75.6684 6.33306 75.4449 6.33306Z" fill="black"/>
<path fill-rule="evenodd" clip-rule="evenodd" d="M82.4256 24.9107C82.3844 24.9107 82.3427 24.9077 82.3005 24.9013L77.788 24.2268C77.33 24.1584 77.0139 23.7315 77.0823 23.2731C77.1511 22.8151 77.5766 22.5 78.036 22.5674L82.5488 23.2419C83.0068 23.3104 83.3229 23.7372 83.2545 24.1956C83.1921 24.6117 82.834 24.9107 82.4256 24.9107Z" fill="black"/>
<path fill-rule="evenodd" clip-rule="evenodd" d="M58.3568 6.13081C57.9746 6.13081 57.629 5.86772 57.5401 5.47946L56.5206 1.03179C56.4172 0.580114 56.6995 0.130113 57.1511 0.0267564C57.6035 -0.0759286 58.0525 0.205281 58.1562 0.65696L59.1756 5.10429C59.279 5.55597 58.9968 6.00598 58.5451 6.10967C58.482 6.1241 58.4189 6.13081 58.3568 6.13081Z" fill="black"/>
</svg>

<svg width="84" height="94" fill="none" xmlns="http://www.w3.org/2000/svg"><path fill-rule="evenodd" clip-rule="evenodd" d="M64.83 33.256v55.43a2.596 2.596 0 01-2.595 2.596H4.154a2.596 2.596 0 01-2.596-2.595V19.574a2.596 2.596 0 012.596-2.596h58.08a2.596 2.596 0 012.596 2.596v13.682z" fill="#EA4435"/><path fill-rule="evenodd" clip-rule="evenodd" d="M62.235 92.121H4.154a3.439 3.439 0 01-3.435-3.435V19.574a3.438 3.438 0 013.435-3.435h58.08a3.439 3.439 0 013.435 3.435v6.002a.839.839 0 11-1.678 0v-6.002c0-.97-.788-1.757-1.756-1.757H4.154c-.969 0-1.757.788-1.757 1.757v69.112c0 .969.788 1.757 1.757 1.757h58.08c.97 0 1.757-.788 1.757-1.757v-55.43a.839.839 0 111.678 0v55.43a3.439 3.439 0 01-3.434 3.435z" fill="#000"/><path fill-rule="evenodd" clip-rule="evenodd" d="M47.666 80.737H9.15v-58.73h48.087v49.158l-9.572 9.572z" fill="#fff"/><path fill-rule="evenodd" clip-rule="evenodd" d="M47.666 81.576H9.15a.839.839 0 01-.839-.84V22.008c0-.463.376-.838.839-.838h48.087c.463 0 .839.375.839.838v49.158a.839.839 0 11-1.678 0v-48.32H9.989v57.052h37.677a.839.839 0 110 1.678z" fill="#000"/><path fill-rule="evenodd" clip-rule="evenodd" d="M45.97 25.577H20.419a2.96 2.96 0 01-2.96-2.961v-7.057a2.961 2.961 0 012.96-2.961h25.553a2.961 2.961 0 012.96 2.96v7.058a2.96 2.96 0 01-2.96 2.96z" fill="#000"/><path fill-rule="evenodd" clip-rule="evenodd" d="M20.418 13.41c-1.185 0-2.15.963-2.15 2.149v7.057c0 1.185.965 2.15 2.15 2.15h25.553c1.185 0 2.15-.965 2.15-2.15v-7.057c0-1.186-.965-2.15-2.15-2.15H20.418zm25.553 12.978H20.418a3.776 3.776 0 01-3.772-3.772v-7.057a3.776 3.776 0 013.772-3.772h25.553a3.776 3.776 0 013.771 3.772v7.057a3.776 3.776 0 01-3.771 3.772z" fill="#000"/><path fill-rule="evenodd" clip-rule="evenodd" d="M42.117 13.436a.839.839 0 01-.839-.838v-4.26a1.39 1.39 0 00-1.39-1.39H26.501a1.39 1.39 0 00-1.39 1.39v4.26a.839.839 0 11-1.678 0v-4.26A3.072 3.072 0 0126.5 5.269h13.387a3.072 3.072 0 013.068 3.069v4.26a.839.839 0 01-.839.838z" fill="#000"/><path fill-rule="evenodd" clip-rule="evenodd" d="M26.413 38.556a4.867 4.867 0 11-9.735 0 4.867 4.867 0 019.735 0zm0 13.627a4.867 4.867 0 11-9.735 0 4.867 4.867 0 019.735 0zm0 13.628a4.867 4.867 0 11-9.735 0 4.867 4.867 0 019.735 0z" fill="#EA4435"/><path fill-rule="evenodd" clip-rule="evenodd" d="M21.546 41.017a.838.838 0 01-.593-.246l-2.596-2.596a.838.838 0 111.186-1.186l1.96 1.96 3.33-3.829a.84.84 0 011.265 1.101l-3.92 4.508a.84.84 0 01-.603.287l-.03.001z" fill="#F5F8FA"/><path fill-rule="evenodd" clip-rule="evenodd" d="M25.465 36.51a.839.839 0 01-.633-1.39l2.57-2.956a.84.84 0 011.266 1.101l-2.57 2.956a.837.837 0 01-.633.288z" fill="#000"/><path fill-rule="evenodd" clip-rule="evenodd" d="M21.546 54.97a.838.838 0 01-.593-.247l-2.596-2.595a.838.838 0 111.186-1.187l1.96 1.96 3.33-3.829a.84.84 0 011.265 1.102l-3.92 4.507a.839.839 0 01-.632.288z" fill="#F5F8FA"/><path fill-rule="evenodd" clip-rule="evenodd" d="M25.465 50.462a.84.84 0 01-.633-1.39l2.57-2.955a.84.84 0 011.266 1.1l-2.57 2.957a.838.838 0 01-.633.288z" fill="#000"/><path fill-rule="evenodd" clip-rule="evenodd" d="M21.546 68.921a.839.839 0 01-.593-.245l-2.596-2.596a.838.838 0 111.186-1.186l1.96 1.96 3.33-3.83a.84.84 0 011.265 1.102l-3.92 4.507a.84.84 0 01-.603.288h-.03z" fill="#F5F8FA"/><path fill-rule="evenodd" clip-rule="evenodd" d="M25.465 64.414a.839.839 0 01-.633-1.39l2.57-2.955a.84.84 0 011.266 1.101l-2.57 2.956a.837.837 0 01-.633.288zM50.91 36.636H33.066a.839.839 0 110-1.678H50.91a.839.839 0 110 1.678zm0 4.543h-3.893a.839.839 0 110-1.678h3.893a.839.839 0 110 1.678zm-10.87 0h-6.975a.839.839 0 110-1.678h6.976a.839.839 0 110 1.678zm10.87 9.41H33.066a.839.839 0 110-1.678H50.91a.839.839 0 110 1.678zm-3.893 4.542H33.064a.839.839 0 110-1.678h13.953a.839.839 0 110 1.678zm3.893 9.41H33.066a.839.839 0 110-1.678H50.91a.839.839 0 110 1.678z" fill="#000"/><path fill-rule="evenodd" clip-rule="evenodd" d="M42.275 69.084h-5.641a.84.84 0 010-1.678h5.641a.839.839 0 010 1.678z" fill="#242B42"/><path fill-rule="evenodd" clip-rule="evenodd" d="M40.04 69.084h-2.758a.84.84 0 010-1.678h2.759a.839.839 0 110 1.678z" fill="#000"/><path fill-rule="evenodd" clip-rule="evenodd" d="M47.666 80.737v-9.572h9.572l-9.572 9.572z" fill="#fff"/><path fill-rule="evenodd" clip-rule="evenodd" d="M48.505 72.004v6.707l6.707-6.707h-6.707zm-.84 9.572a.84.84 0 01-.838-.84v-9.571c0-.464.375-.84.839-.84h9.572a.838.838 0 01.593 1.433l-9.572 9.572a.839.839 0 01-.593.246zm27.78-75.243a.84.84 0 01-.611-1.413l3.123-3.326a.839.839 0 111.223 1.148L76.057 6.07a.837.837 0 01-.612.264zm6.981 18.577a.833.833 0 01-.126-.009l-4.512-.674a.839.839 0 01.248-1.66l4.513.675a.84.84 0 01-.123 1.669zM58.357 6.13a.839.839 0 01-.817-.65l-1.02-4.448a.839.839 0 011.636-.375l1.02 4.447a.84.84 0 01-.82 1.027z" fill="#000"/></svg>
